!!!OTL: IM KUEHLEN KELLER SITZ ICH HIER
!!!ARE: Europa, Mitteleuropa, Deutschland
!!!SCT: B0561
!!!YEM: Copyright 1995, estate of Helmut Schaffrath.
**kern
*ICvox
*Ivox
*M4/4
*k[b-]
*F:
{4f
=1
4f
4F
4a
4f
=2
4.cc
8dd
4cc}
{4b-
=3
4a
4f
4d
4Bn
=4
4c
4c
4r}
{4f
=5
4f
4F
4a
4f
=6
4.cc
8dd
4cc}
{4b-
=7
4a
4f
4d
4Bn
=8
4c
4c
4r}
{4c
=9
4.b-
8g
4e
4c
=10
4.f
8a
4cc}
{4cc
=11
4.dd
8b-
4g
4f
=12
4e
4c
4r}
{4c
=13
4f
4F
4a
4f
=14
4B-
4dd
4ff}
{8ee
8dd
=15
4cc
8a
8f
4cc
4c
=16
4f
4F
4r}
==
!!!AGN: Studenten -, Trink - Lied
!!!ONB: ESAC (Essen Associative Code) Database: BOEHME
!!!AMT: simple quadruple
!!!AIN: vox
!!!EED: Helmut Schaffrath
!!!EEV: 1.0
*-
